!!!COM:      Bach, Johann Sebastian
!!!CDT:      1685/03/31/-1750/07/28/
!!!OPR@@GER: Das wohltemperirte Clavier
!!!OVM@@GER: Band I
!!!OPR@ENG:  Well-Tempered Clavier
!!!OVM@ENG:  Book I
!!!OTL:      Prelude
!!!OKY:      B minor
!!!ONM:      no. 24
!!!SCT:      BWV 869
!!!OMV:      1
**kern	**kern	**kern	**kern
*>[A,A,B,B]	*>[A,A,B,B]	*>[A,A,B,B]	*>[A,A,B,B]
*>norep[A,B]	*>norep[A,B]	*>norep[A,B]	*>norep[A,B]
*>A	*>A	*>A	*>A
*clefF4	*clefG2	*	*clefG2
*k[f#c#]	*k[f#c#]	*	*k[f#c#]
*b:	*b:	*	*b:
*M4/4	*M4/4	*	*M4/4
*met(c)	*met(c)	*	*met(c)
*MM64	*MM64	*MM64	*MM64
=1-	=1-	=1-	=1-
8BB	4f#	1ryy	2r
8C#	.	.	.
8D	2b	.	.
8E	.	.	.
8F#	.	.	4cc#
8G#	.	.	.
8A	4a	.	[4ff#
8B	.	.	.
=2	=2	=2	=2
8c#	4g#	1ryy	4ff#]
8B	.	.	.
8A#	2cc#	.	4ee
8F#	.	.	.
8B	.	.	[2dd
8An	.	.	.
8Gn	8b	.	.
8F#	8a	.	.
=3	=3	=3	=3
8E	[2gn	1ryy	4dd]
8C#	.	.	.
8D	.	.	8cc#
8E	.	.	8b
8F#	8g]	.	4a#
8FF#	8f#	.	.
8GG#	[4e	.	8b
8AA#	.	.	8cc#
=4	=4	=4	=4
8BB	4e]	1ryy	4f#
8C#	.	.	.
8D	4d	.	2b
8E	.	.	.
8F#	4c#	.	.
8G#	.	.	.
8An	[4f#	.	4a
8F#	.	.	.
=5	=5	=5	=5
8B	4f#]	1ryy	2g
8BB	.	.	.
8C#	2e	.	.
8AA	.	.	.
8D	.	.	2f#
8C#	.	.	.
8BB	[4d	.	.
8AA	.	.	.
=6	=6	=6	=6
8GG	4d]	1ryy	4b
8F#	.	.	.
8E	2g	.	4ee
8D	.	.	.
8C#	.	.	4a
8A	.	.	.
8B	4f#	.	[4dd
8F#	.	.	.
=7	=7	=7	=7
8G	2e	1ryy	4dd]
8E	.	.	.
8A	.	.	4cc#
8AA	.	.	.
8D	4f#	.	16dd
.	.	.	16cc#
8E	.	.	16b
.	.	.	16a
8F#	4r	.	[4dd
8G	.	.	.
=8	=8	=8	=8
8AA	4e	1ryy	4dd]
8BB	.	.	.
8C#	2a	.	4cc#
8D	.	.	.
8E	.	.	4b
8F#	.	.	.
8G	4g	.	[4ee
8A	.	.	.
=9	=9	=9	=9
8BB	4f#	1ryy	4ee]
8C#	.	.	.
8D	2b	.	4dd
8E	.	.	.
8F#	.	.	4cc#
8G#	.	.	.
8A	4a	.	[4ff#
8B	.	.	.
=10	=10	=10	=10
8c#	4g#	1ryy	4ff#]
8B	.	.	.
8c#	2cc#	.	4ee#
8A	.	.	.
8d	.	.	4ff#
8c#	.	.	.
8d	[4b	.	4gg#
8B	.	.	.
=11	=11	=11	=11
8E#	4b]	1ryy	4cc#
8c#	.	.	.
8d	4a	.	2ff#
8A	.	.	.
8B	2g#	.	.
8G#	.	.	.
8c#	.	.	4ee#
8C#	.	.	.
=12	=12	=12	=12
8F#	4a	1ryy	4ff#
8En	.	.	.
8F#	2dd	.	4r
8G#	.	.	.
8A	.	.	4een
8B	.	.	.
8c#	4cc#	.	[4aa
8d	.	.	.
=13	=13	=13	=13
8E	4b	1ryy	4aa]
8F#	.	.	.
8Gn	2ee	.	4gg
8A	.	.	.
8B	.	.	4ff#
8c#	.	.	.
8d	4dd	.	[4bb
8e	.	.	.
=14	=14	=14	=14
8F#	4cc#	1ryy	4bb]
8E	.	.	.
8F#	[4ff#	.	4aa#
8D	.	.	.
8G	8ff#]	.	4.bb
8F#	8b	.	.
8G	[4ee	.	.
8E	.	.	16aan
.	.	.	16gg
=15	=15	=15	=15
8A#	8ee]	1ryy	4.ff#
8F#	16dd	.	.
.	16cc#	.	.
8B	8dd	.	.
8E	8b	.	8gg
8F#	4b	.	4dd
8E	.	.	.
8F#	4a#	.	4cc#
8FF#	.	.	.
=16	=16	=16	=16
4BB	4b	1ryy	8b
.	.	.	4gg
4AA	4cc#	.	.
.	.	.	[8ff#
2GGT	4.dd	.	8ff#]
.	.	.	16bb
.	.	.	16aa#
.	.	.	4bb
.	[8ee	.	.
=17	=17	=17	=17
1FF#	8ee]	1ryy	8aa#
.	8dd	.	8bb
.	8cc#	.	8ee
.	8b	.	8dd
.	2a#X	.	2cc#
=18:||:	=18:||:	=18:||:	=18:||:
*>B	*>B	*>B	*>B
8F#	8r	1ryy	[2aan
8Gn	8cc#	.	.
8A	8ff#	.	.
8F#	8ee	.	.
8B	2dd#	.	8aa]
8A	.	.	8ff#
8G	.	.	8bb
8F#	.	.	8aa
=19	=19	=19	=19
8E	4ee	1ryy	4gg
8GG	.	.	.
8AA	4dd#	.	4ff#
8BB	.	.	.
8EE	8ee	.	[2gg
8FF#	8b	.	.
8GG	8ee	.	.
8EE	8ddn	.	.
=20	=20	=20	=20
8AA	2cc#	1ryy	8gg]
8GG	.	.	8ee
8FF#	.	.	8aa
8EE	.	.	8gg
8DD	4dd	.	4ff#
8FF#	.	.	.
8GG	4cc#	.	4ee
8AA	.	.	.
=21	=21	=21	=21
8DD	8dd	1ryy	[2ff#
8E	8a	.	.
8D	8b	.	.
8C#	8cc#	.	.
8BB	[2dd	.	8ff#]
8AA	.	.	8ff#
8GG#	.	.	8gg#
8FF#	.	.	8aa
=22	=22	=22	=22
8EE#	8dd]	1ryy	4bb
8F#	8cc#	.	.
8G#	8ff#	.	2aa
8A	8ee	.	.
8B	8dd	.	.
8c#	8cc#	.	.
8d	[4b	.	8ggn
8B	.	.	8ff#
=23	=23	=23	=23
8c#	4b]	1ryy	8ee#
8FF#	.	.	8cc#
8GG#	[4a	.	8ff#
8AA	.	.	8een
8BB	8a]	.	[2dd
8C#	8a	.	.
8D	8g#	.	.
8BB	8f#	.	.
=24	=24	=24	=24
8C#	8e#	1ryy	4dd]
8D#	8f#	.	.
8E#	2g#	.	8cc#
8C#	.	.	8b
8F#	.	.	8a
8G#	.	.	8b
8A	8f#	.	[4cc#
8F#	8en	.	.
=25	=25	=25	=25
8B	2d	1ryy	4cc#]
8A	.	.	.
8G#	.	.	2b
8F#	.	.	.
8E#	2c#	.	.
8C#	.	.	.
8F#	.	.	[4a
8En	.	.	.
=26	=26	=26	=26
8D	[2B	1ryy	4a]
8C#	.	.	.
8D	.	.	8g#
8BB	.	.	8f#
8C#	8B]	.	8e#
8BB	8e#X	.	8dd
8AA	8f#	.	8cc#
8BB	8g#X	.	8b
=27	=27	=27	=27
8C#	8c#	1ryy	4a
8BB	4f#	.	.
8C#	.	.	4g#
8CC#	8e#	.	.
8FF#	4f#	.	4f#
8C#	.	.	.
8D#	[4ccn	.	4r
8E	.	.	.
=28	=28	=28	=28
8F#	4cc]	1ryy	4dd#
8A	.	.	.
8G	8b	.	8ee
8F#	8a	.	8ff#
8E	8g	.	8b
8F#	8dd#X	.	8cccn
8G	8ee	.	8bb
8A	8ff#	.	8aa
=29	=29	=29	=29
8B	8b	1ryy	4gg
8A	4ee	.	.
8B	.	.	4ff#
8BB	8dd#	.	.
8E	4ee	.	4ee
8B	.	.	.
8c#	4r	.	[4bb-
8d	.	.	.
=30	=30	=30	=30
8e	4cc#	1ryy	4bb-]
8G	.	.	.
8F#	8dd	.	8aa
8E	8ee	.	8gg
8D	8a	.	8ff#
8E	8b-X	.	8cc#
8F#	8a	.	8dd
8G	8g	.	8ee
=31	=31	=31	=31
8A	4f#	1ryy	8a
8G	.	.	4dd
8A	4e	.	.
8AA	.	.	8cc#
8BB	4d	.	8f#
8D	.	.	4b
8F#	4c#	.	.
8FF#	.	.	8a
=32	=32	=32	=32
8GG	4B	1ryy	8d
8BB	.	.	4g
[4D	4A	.	.
.	.	.	8f#
8D]	4B	.	4g#
8D	.	.	.
8C#	[4e	.	8a#
8BB	.	.	8b
=33	=33	=33	=33
8AA#	8e]	1ryy	[2cc#
8FF#	8gn	.	.
8GG#	8f#	.	.
8AA#	8e	.	.
8BB	4d	.	8cc#]
8F#	.	.	8b
8E	[4g	.	8cc#
8D	.	.	8dd
=34	=34	=34	=34
8C#	8g]	1ryy	[2ee
8AA	8b	.	.
8BB	8a	.	.
8C#	8g	.	.
8D	4f#	.	8ee]
8A	.	.	8dd
8G	[4b	.	8ee
8F#	.	.	8ff#
=35	=35	=35	=35
8E	8b]	1ryy	2.gg
8C#	8dd	.	.
8D	8cc#	.	.
8E	8b	.	.
8AA#	8cc#	.	.
8F#	8ee	.	.
8G#	8dd	.	[4ff#
8A#X	8cc#	.	.
=36	=36	=36	=36
8B	4dd	1ryy	8ff#]
8BB	.	.	8aa
8C#	[4b	.	8gg
8D	.	.	8ff#
8E	8b]	.	4gg
8F#	8dd	.	.
8E	8cc#	.	[4gg#
8D	8b	.	.
=37	=37	=37	=37
8C#	4ee	1ryy	8gg#]
8c#	.	.	8bb
8d	[4cc#	.	8aa
8e	.	.	8gg#
8f#	8cc#]	.	4aa
8g	8ee	.	.
8f#	8dd	.	[4aa#
8e	8cc#	.	.
=38	=38	=38	=38
8d	4ff#	1ryy	8aa#]
8D	.	.	8cccn
8E	[4dd	.	8bb
8F#	.	.	8aa#
8G	8dd]	.	4.bb
8F#	8ee	.	.
8E	[4ff#	.	.
8D#	.	.	8aan
=39	=39	=39	=39
8E	4ff#]	1ryy	2gg
8Dn	.	.	.
8C#	2ee	.	.
8BB	.	.	.
8AA#	.	.	2ff#
8F#	.	.	.
8B	[4dd	.	.
8An	.	.	.
=40	=40	=40	=40
8G#	4dd]	1ryy	2ee
8F#	.	.	.
8G#	2cc#	.	.
8A#	.	.	.
8B	.	.	[2dd
8BB	.	.	.
8C#	8b	.	.
8D	8a	.	.
=41	=41	=41	=41
8E	[2g	1ryy	4dd]
8F#	.	.	.
8G	.	.	8cc#
8E	.	.	8b
8F#	8g]	.	8a#
8E	8a#X	.	8gg
8D	8b	.	8ff#
8E	8cc#	.	8ee
=42	=42	=42	=42
8F#	8f#	1ryy	4dd
8E	4b	.	.
8F#	.	.	4cc#
8FF#	8a#	.	.
4GG	8b	.	[2b
.	4e	.	.
4FF#	.	.	.
.	8d#	.	.
=43	=43	=43	=43
4EE	[2g	1ryy	8b]
.	.	.	4b
4DD	.	.	.
.	.	.	8a#
8CC#	8g]	.	[2ee
8B	4g	.	.
8A#	.	.	.
8An	8f#	.	.
=44	=44	=44	=44
8G#	[2b	1ryy	8ee]
8Gn	.	.	4ee
8F#	.	.	.
8B	.	.	8dd#
8E	8b]	.	[2gg
8e	4b	.	.
8d	.	.	.
8c#	8a#	.	.
=45	=45	=45	=45
8B	[2dd	1ryy	8gg]
8cn	.	.	4ff#
8c#	.	.	.
8d	.	.	8ee#
8E#	8dd]	.	8bb
8F#	8ccn	.	16een
.	.	.	16dd#
8Gn	[4b	.	8ee
8En	.	.	8gg
=46	=46	=46	=46
8F#	4b]	1ryy	4ddn
8E	.	.	.
8F#	4a#	.	4cc#
8FF#	.	.	.
[2BB	8an	.	8dd#
.	4g	.	8ee
.	.	.	8a#
.	[8f#	.	8b
=47	=47	=47	=47
*	*	*staff:2	*
*	*	*clefG2	*
*	*	*k[f#c#]	*
1BB]	8f#]	2g	4r
.	8e	.	.
.	4c#	.	8r
.	.	.	8a#
.	2d#	2f#	2b
==:|	==:|	==:|	==:|
*-	*-	*-	*-
!!!AFR:  prelude
!!!EFL:  47/96
!!!END:  1994/01/21/
!!!VID:  135071331 Bach, BWV 869-01
!!!AST:  Baroque
!!!OCY:  Deutschland
!!!ODT:  1722///
!!!PDT:  1801///
!!!EED:  Walter Hewlett
!!!ENC:  Walter Hewlett
!!!YOR:  Bach Gesellschaft Edition xiv
!!!AFT:  enhanced SCORE
!!!RDT:  2011/10/07/ by Andreas Kornstaedt using massScr2hmd
!!!SCA1: Thematisch-systematisches Verzeichnis der musikalischen Werke 
!!!SCA2: Johann Sebastian Bach: Bach-Werke-Verzeichnis (Schmieder)
!!!YEC1: Copyright 1994, 2000 Center for Computer Assisted Research 
!!!YEC2: in the Humanities
!!!YEM1: Rights to all derivative editions reserved.
!!!YEM2: Refer to licensing agreement for further details.
!!!YEN:  United States of America
!!!ref:  @{OTL}, @{SCT}
!!muse2ps: T^@{OTL} @{ONM} in @{OKY}^C^J.S. Bach\n@{SCT}-@{OMV}^
!!muse2ps: u^@{OPR@ENG}, @{OVM@ENG}^j
